icons/headphone.svg

<svg width="24" height="24" viewBox="0 0 24 24" fill="none" xmlns="http://www.w3.org/2000/svg">
<path d="M3 12.9999H7C7.26522 12.9999 7.51957 13.1053 7.70711 13.2928C7.89464 13.4803 8 13.7347 8 13.9999V18.9999C8 19.2651 7.89464 19.5195 7.70711 19.707C7.51957 19.8946 7.26522 19.9999 7 19.9999H4C3.73478 19.9999 3.48043 19.8946 3.29289 19.707C3.10536 19.5195 3 19.2651 3 18.9999V12.9999ZM3 12.9999V11.9299M21 12.9999H17C16.7348 12.9999 16.4804 13.1053 16.2929 13.2928C16.1054 13.4803 16 13.7347 16 13.9999V18.9999C16 19.2651 16.1054 19.5195 16.2929 19.707C16.4804 19.8946 16.7348 19.9999 17 19.9999H20C20.2652 19.9999 20.5196 19.8946 20.7071 19.707C20.8946 19.5195 21 19.2651 21 18.9999V12.9999ZM21 12.9999V11.9999C21.0093 9.61296 20.07 7.32009 18.3887 5.6257C16.7074 3.93131 14.4219 2.97419 12.035 2.96491C9.64805 2.95563 7.35518 3.89494 5.66079 5.5762C3.9664 7.25747 3.00928 9.54296 3 11.9299M3 11.9999V11.9299" stroke="white" stroke-width="2" stroke-linecap="round" stroke-linejoin="round"/>
</svg>

<svg
  width="24"
  height="24"
  viewBox="0 0 24 24"
  xmlns="http://www.w3.org/2000/svg"
  fill="none"
  stroke="currentColor"
  stroke-width="2"
  stroke-linecap="round"
  stroke-linejoin="round"
>
  <path d="M3 13h4a1 1 0 0 1 1 1v5a1 1 0 0 1-1 1H4a1 1 0 0 1-1-1v-6zm0 0v-1.07M21 13h-4a1 1 0 0 0-1 1v5a1 1 0 0 0 1 1h3a1 1 0 0 0 1-1v-6zm0 0v-1a9 9 0 1 0-18-.07M3 12v-.07" />
</svg>
